X:1
T:Title
%%score ( 1 2 ) ( 3 4 )
L:1/8
Q:1/4=100
M:4/4
K:Eb
V:1 treble nm="Grand Piano, Soprano"
V:2 treble 
V:3 bass nm="Choir Pad, Bass"
V:4 bass 
V:1
 E>[DF] [EG]2 [EG]>[EG] [EG]2 | [GB]>[Ac] [GB]4 [EG]2 | [GB]2 [Ac]2 [Ac]>[Ac] [GB]2 | %3
w: By~William~Howard~Doane * * * * *|||
 [GB]>[EG] [DF]4 z2 | [EG]>[DA] [EB]2 [EB]>[EB] [EB]2 | [Ge][Bd] [Ac]4 [Ae]2 | %6
w: |||
 [Ac][Ac] [GB]2 [EG]>E [EG]2 | [DF]>[DF] E4 z2 | (3Bcd [Ge]2 [Ge]>[Af] [Ge]2 | %9
w: |||
 [GB]2 [Ac]>[A=B] [Ac]>[Ad] [Ae]2 | [Ac]2 [GB]2 [EB]>[Ec] [EB]2 | [EG]2 [DF]<[DF] [DF]>[EG] [DF]2 | %12
w: |||
 E>[EF] [EG]E [DF][DG] [CA]2 | [EA]>[EA] [E=A][EF] [EG][EA] [DB]2 | %14
w: ||
 [Ec]>[Fd] [Ee][Ed] [Ee][EB][Ed][Ec] | [GB][FA] [EG]2 [DF]2 [B,E]2- | [B,E]6 z2 |] %17
w: |||
V:2
 x8 | x8 | x8 | x8 | x8 | x8 | x8 | x8 | G2 z2 z4 | x8 | x8 | x8 | x8 | x8 | x8 | x8 | x8 |] %17
V:3
 [E,G,]>[E,A,] [E,B,]2 [E,B,]>[E,B,] [E,B,]2 | [E,E]>[E,E] [E,E]4 [E,B,]2 | %2
 [E,E]2 [A,E]2 [A,E]>[A,E] [E,E]2 | [E,E]>[E,B,] [B,,B,]4 z2 | %4
 [E,B,]>[F,B,] [G,B,]2 [G,B,]>[G,B,] [G,B,]2 | [E,B,][E,E] [A,E]4 [A,C]2 | %6
 [A,E]2 [B,E]2 [B,,B,]>[B,,G,] [B,,B,]2 | [B,,A,]>[B,,A,] [E,G,]4 z2 | %8
 [E,B,]2 [E,B,]2 [E,B,]>[E,B,] [E,B,]2 | [E,E]2 [A,E]>[A,E] [A,E]>[A,E] [A,C]2 | %10
 [A,E]2 EB, [E,G,]>[E,A,] [E,G,]2 | [E,B,]2 [B,,B,]<[B,,B,] [B,,B,]>[B,,B,] [B,,B,]2 | %12
 [E,G,]>[E,A,] [E,A,][E,G,] [E,A,][E,B,] [A,,A,]2 | %13
 [A,C]>[_G,C] [F,C][F,=A,] [F,B,][F,C] [B,,B,]2 | %14
 [=A,B,]>[A,B,] [G,B,][G,B,] [G,B,][G,B,][_A,C][A,C] | [A,C][A,C] B,2 [B,,A,]2 [E,G,]2- | %16
 [E,G,]6 z2 |] %17
V:4
 x8 | x8 | x8 | x8 | x8 | x8 | x8 | x8 | x8 | x8 | z2 E,2 z4 | x8 | x8 | x8 | x8 | x8 | x8 |] %17

